X:1
T:Grand Caprice sur Der Erlkonig
T:Grand Caprice sur Erlkönig de Schubert
T:Op. 26
T:Heinrich Wilhelm Ernst
C:Heinrich Wilhelm Ernst
%%score ( 1 2 3 ) { 4 | ( 5 6 7 ) }
L:1/8
Q:1/4=152
M:4/4
K:Bb
V:1 treble nm="Violin"
V:2 treble 
V:3 treble 
V:4 treble nm="Violin"
V:5 treble 
V:6 treble 
V:7 treble 
V:1
"^Presto"!f! (3[G,G][G,G][G,G] (3[G,G][G,G][G,G] (3[G,G][G,G][G,G] (3[G,G][G,G][G,G] | %1
 (3GGG (3GGG (3GGG"^pizz." (3GGG | %2
 (3G[G,G][G,G] (3[G,G][G,G][G,G] (3[G,G][G,G][G,G] (3[G,G][G,G][G,G] | %3
"^arco" (3GGG (3GGG (3GGG"^pizz." (3GGG | %4
 (3G[G,G][G,G] (3[G,G][G,G][G,G] (3[G,G][G,G][G,G] (3[G,G][G,G][G,G] | %5
"_ten.""^arco" (3[GA][GA][GA] (3[GA][GA][GA]!<(! (3[GA][GA][GA]"_ten." (3[GA][GA][GA]!<)! | %6
!>(! (3[GB][GB][GB] (3[GB][GB][GB]!>)! (3[^FA][FA][FA] (3[FA][FA][FA] | %7
 (3[G,G] [Gg][Gg] (3[Gg][Gg][Gg] (3[Gg][Gg][Gg] (3[Gg][Gg][Gg] | %8
!f! (3[Gg][Gg][Gg] (3[Gg][Gg][Gg] (3[Gg][Gg][Gg]"^pizz." (3[Gg][Gg][Gg] | %9
 (3[Gg][Gg][Gg] (3[Gg][Gg][Gg] (3[Gg][Gg][Gg] (3[Gg][Gg][Gg] | %10
!f!"^arco" (3[Gg][Gg][Gg] (3[Gg][Gg][Gg] (3[Gg][Gg][Gg]"^pizz." (3[Gg][Gg][Gg] | %11
 (3[Gg][Gg][Gg] (3[Gg][Gg][Gg] (3[Gg][Gg][Gg] (3[Gg][Gg][Gg] | %12
"^arco"!pp! (3[GA][GA][GA] (3[GA][GA][GA] (3[GA][GA][GA] (3[GA][GA][GA] | %13
 (3[B=e][GB][GB] (3[GB][GB][GB] (3[GB][GB][GB] (3GGG |!<(! (3^FFG (3A=B^c (3d z z!<)!!mp! a2 | %15
 b4 a2 g2 | a2 z2 z2 a2 | b4 g4 | d'2 z2 z4 | z4 z2 d2 | d2 z2 z2 g2 | g4 e2 c2 | f4 z2 A2 | %23
!<(! B2 z2!<)!!>(! z2 B2!>)! | e4 z2 A2 |!<(! c2 B2!<)!!>(! z2 B2!>)! | e4 z2 A2 | %27
 c2 B2 z2!mp! [Bb]2 |!<(! d'4 z2 a2!<)! |!f! b4 z2 g2 | a4 ^f4 |!f! [Bg]2 z2 z4 | %32
 (3GGG (3GGG (3GGG"^pizz." (3GGG | %33
 (3G[G,G][G,G] (3[G,G][G,G][G,G] (3[G,G][G,G][G,G] (3[G,G][G,G][G,G] | %34
"^arco"!pp! (3GGG (3GGG (3GGG"^pizz." (3GGG | (3GGG (3GGG (3GGG"^arco" (3GGG | %36
 (3GGG (3GGG (3GGG!<(! (3GGG | (3GGG (3GGG A2 z2 | B2 z2 =B2 (3z z B!<)! | %39
!f! (3c x x x2 (3c!ff! x x x2 | x4 (3c x x c'2 | d'4 z2 g2 | e'4 z2 c'2 | d'4 z2 g2 | e'4 x4 | %45
 x2 (3x x F x2 c'2 | _d'4 z2 (3c'zb | a2 f2 z2 c'2 | _d'4 z2!p! (3c'zb | %49
 c'2!>(! z2!>)! (3[FA]FF (3FFF | (3FFF (3FFF (3FFF!p! (3FFF | (3FFF (3FFF (3FFF (3FFF | %52
 (3FFF (3FFF (3FFF (3FFF |!<(! x2 (3x x D (3D x x x2!<)! | %54
 x2"^pizz." (3z [df][df] (3z [df][df] (3z [Bf][Bf] | %55
 (3z [Bg][Bg] (3[Bg][Bg][Bg] (3z [Ge][Ge] (3[Ge][Ge][Ge] | %56
 (3z [Bd][Bd] (3[Bd][Bd][Bd] (3z [Ac][Ac]!8va(! [fc']2!8va)! ||[K:Bb] z8 | z8 | z8 | z8 | z8 | z8 | %63
 z8 | z8 | z8 | z8 | z8 | z8 | z8 | z8 | z8 |!f! e'2 z2 e'2 (3z z e' | (3e' z d' d'2 z2 d'2 | %74
 e'2 z2 e'2 (3z z e' | d'2 z2 z2 a2 | b2 a2 b2 =b2 | c'2"_dim." x2 ^c'2 x2 | %78
 (3d'!<(! x x x2 x4!<)! ||[K:C] x2 (3x [G^c][Gc] (3x [DB][DB] (3!>!^F [^C^A][CA] | %80
"_ten." (3!>!B[Bd][Bd] (3[Bd][Bd][Bd] (3[Bd][Bd][Bd] (3[B^d][Bd][Bd] | %81
"_ten." (3z [Be][Be]"_ten." (3z [Be] z"_ten." (3z [Be][Be] (3[Be][Be][Be] | %82
 (3[Be][Be][Be]"^ten." (3G [Be][Be]"^ten." (3A [ce][ce]"^ten." (3A [ce][ce] | %83
"_ten." (3x [Bd][Bd]"_ten." (3z [Bd][Bd]"_ten." (3z [Ac][Ac] (3z [Ac] z | %84
 (3z [GB][GB] (3[GB][GB][GB] (3!>!D!<(![GB][GB] (3B,[GB][GB]!<)! |!f! [Bg]2 z2 z2 G2 | %86
"^ten."!pp! G2 (3A z B c2 (3c z ^c | d2 G2 e2 (3d z c | B2 E2 c2 (3A z A | B2 E2 c2 (3A z A | %90
 A2 (3^G z A B2 (3=G z G | A2 (3D z D B2 (3z z G | G2 (3A z"^pizz." B c2 (3d z e | %93
 f2 (3d z B c2 (3z z G | G2 (3A z"^pizz." B c2 (3d z e | %95
 (3g z f (3d z B (3c!f!"^arco" e!>(!e (3eee!>)! | x4 x2 e'2 | f'2 z2 f'2 (3z z f' | %98
 (3f' z e' e'2 z2 e'2 |"^ten." f'2 z2 f'2 (3z z f' | (3e' x x x2 x4 | %101
"_ten." (3x ee"_ten." (3x ee (3x!<(! ee (3x ee!<)! |"_ten." (3x ee (3eee (3x ee (3eee | %103
 (3x!<(! ee (3eee (3eee (3eee!<)! | (3eee (3x [A^d][Ad] (3x [E^c][Ec]"^ten." (3^G [^D^B][DB] | %105
 (3[^C^c] [Ec][Ec] (3[Ec][Ec][Ec] (3[Ec][Ec][Ec] (3x [Ec][Ec] | %106
 (3x [E^c][Ec] (3[Ec][Ec][Ec] (3[Ec][Ec][Ec] (3x [Ec][Ec] | %107
 (3x [E^c][Ec] (3[Ec][Ec][Ec] (3x [EAg][EAg] (3[EAg][EAg] [A,A] | %108
 (3x [DAf][DAf] (3[DAf][DAf][DAf] (3[DAf][DAf][DAf] (3x [Af][Af] | %109
 (3z [de][de] (3[de][de][de] (3z [de][de] (3z [de][de] | %110
 (3z [df][df] (3[df][df][df] (3z [de][de] (3z [^ce][ce] | %111
!ff! (3[Dd][Dd][Dd] (3[Dd][Dd][Dd] (3[Dd][Dd][Dd] (3[Dd][Dd][Dd] | %112
!<(! (3ddd (3ddd!<)! (3ddd"^pizz." (3ddd | %113
 (3d[Dd][Dd] (3[Dd][Dd][Dd] (3[Dd][Dd][Dd] (3[Dd][Dd][Dd] | %114
"^arco"!p! (3ddd (3ddd (3ddd"^pizz." (3ddd | (3dDD (3DDD (3DDD"^arco" d2 | %116
"^avec beaucoup d'expression"!pp! (_e3 _B) (B2 e2) | (d2 d_e) (f2 ed) | (_e6 d2) | ^c4 c2 c2 | %120
"_cresc." d4 !>!d2 !>!d2 | A4 !>!A2 !>!A2 |!fff! x4 x2 f'2 | _g'2 x2 g'2 (3z z g' | %124
 (3_g' z f' (3f' x x z2 f'2 | _g'2 x2 g'2 (3z z g' | f'2 z2 z4 | [ff']2 z2 [^f^f']2 (3z z [ff'] | %128
!ff! [gg']2 z2!ff! z2 (3z z _e' |!ff! [dd']2 z2!ff! [dd']2 z2 ||[K:Bb]!f! [Bg]2 z2 z4 | %131
 (3GGG (3GGG (3GGG (3GGG | d2 z2 z2 d2 | (3GGG (3GGG (3GGG (3GGG | g2 z2 [Aa]2 (3z z [Aa] | %135
 (3[GB][GB][GB] (3[GB][GB][GB] (3[GB][GB][GB] (3[GB][GB][GB] | %136
 (3[GB][GB][GB] (3[GB][GB][GB] (3[Ac][Ac][Ac] (3[Ac][Ac][Ac] | [Bdd']2 x2 x2 [dd']2 | %138
 d'2 z2 g'2 (3z z d' |!ff! e'2 x2 (3z [Ge][Ge] (3z [Ge][Ge] | %140
 (3z [cc'][cc'] (3[cc'][cc']C!<(! (3_D[cc'](D (3=D)[cc'](D | %141
 (3E)[cc'](E (3=E)[cc'](E (3F)[cc'](F (3G)([cc']G)!<)! | x4 x2 _a2 | [_d_d']2 (3z z b g2 b2 | %144
 [c_a]2 x2 x4 | !fermata![C_A]2[Q:1/4=50]"^Recit." z/!p!"_sul G" A/ A/ B/ c2 B A | %146
"^rit." G"^pizz." [^CGB=e] !fermata!z"^arco" C D2[Q:1/4=70]"^Andante"!ff! [D=c^f] z | %147
 [G,DBg]2 z2 z4 |] %148
V:2
 x8 | (3G,A,B, (3CDE (3D z z (3!plus!B, z z | (3!plus!G, x x x2 x4 | %3
 (3G,A,B, (3CDE (3D z z (3!plus!B, z z | (3!plus!G, x x x2 x4 | (3C x x x2 x2 (3^C x x | %6
 (3D x x x2 (3D x x x2 | x8 | (3G,A,B, (3CDE (3D z z (3!plus!B, z z | (3!plus!G, x x x2 x4 | %10
 (3G,A,B, (3CDE (3D z z (3!plus!B, z z | (3!plus!G, x x x2 x4 | (3C x x x2 x4 | %13
 (3[^CG] x x x2 x2 (3CCC | (3DDD (3DDD (3DDD (3[D^FA]DD | %15
 (3[G,DB][DB][DB] (3[DB][DB][DB] (3[DB][DB][DB] (3[DB][DB][DB] | %16
 (3[^FA][DF][DG] (3[DA][D=B][D^c] (3dDD (3[FA]DD | %17
 (3[G,DB][DB][DB] (3[DB][DB][DB] (3[DB][DB][DB] (3[DB][DB][DB] | %18
 (3[D^FA][DF][DG] (3[DA][D=B][D^c] (3d[A,F][A,F] (3[A,F][A,F][A,F] | %19
 (3[A,^F][A,F][A,F] (3[A,F][A,F][A,F] (3[A,F][A,F][A,F] (3[A,F][A,F][A,F] | %20
 (3[G,=F][G,F=B][G,FB] (3[G,FB][G,FB][G,FB] (3[G,FB][G,FB][G,FB] (3[G,FB][G,FB][G,FB] | %21
 (3[CEc][Ec][Ec] (3[Ec][Ec][Ec] (3[CG][CG][CG] (3[EG][EG][EG] | %22
 (3[Fd][DF][DF] (3[DF][DF][DF] (3[CE][CE][CE] (3[CE][CE][CE] | (3[B,D]CD (3EF_G (3F=E_E (3DCB, | %24
 (3[B,_G][B,G][B,G] (3[B,G][B,G][B,G] (3[B,G][B,G][B,G] (3[B,E][B,E][B,E] | %25
 (3[B,D]CD (3EF_G (3F=E_E (3DCB, | %26
 (3[B,_G][B,G][B,G] (3[B,G][B,G][B,G] (3[B,G][B,G][B,G] (3[B,E][B,E][B,E] | %27
 (3[B,D]CD (3EF_G (3F=E_E (3DCB, | %28
 (3[DAc][Dc][=Ec] (3[^Fc][Gc][^Gc] (3[Ac][Gc][=Gc] (3[Fc][Ec][Dc] | %29
 (3[G,DB][GB][AB] (3BGF (3EEF (3GED | (3[CG][CGA][DGA] (3[EGA][DGA][CGA] (3[DA]D^C (3=CB,A, | %31
 (3[G,D][G,G][G,G] (3[G,G][G,G][G,G] (3[G,G][G,G][G,G] (3[G,G][G,G][G,G] | %32
 (3G,A,B, (3CDE (3D z z (3!plus!B, z z | (3!plus!G, x x x2 x4 | %34
 (3G,A,B, (3CDE (3D z z (3!plus!B, z z | (3!plus!G, x x x2 x2 D2 | G2 z2 z2 D2 | %37
 G2 z2 (3G[G,G][G,G] (3[G,G][G,G][G,G] | %38
 (3[G,G][G,G][G,G] (3[G,G][G,G][G,G] (3[G,_A][G,A][G,A] (3[G,A][G,G][G,F] | %39
 (3[CE][Ec][Fc] (3[Gc][=Ac][=Bc] (3c[CGe][CGe] (3[CGe][CGe][CGe] | %40
 (3[CGe]!p![Ec][Fc] (3[Gc][Ac][=Bc] (3c[Ge][Ge] (3[Ge][Ge][Ge] | %41
 (3[C_Af][=Bf][Bf] (3[Bf][Bf][Bf] (3[Bf][Bf][Bf] (3[Bf][Bf][Bf] | %42
 (3[CGe]EF (3[G,G][=A,=A][=B,=B] (3[Cc][Ge][Ge] (3[Ge][Ge][Ge] | %43
 (3[C_Af][=Bf][Bf] (3[Bf][Bf][Bf] (3[Bf][Bf][Bf] (3[Bf][Bf][Bf] | %44
 (3[CGe]EF (3[G,G][=A,=A][=B,=B] (3[Cc]!>![Ge](C (3_B,)!>![_Ge]!<(!(B,!<)! | %45
 (3[A,Fe])[A,FA][B,FA] (3[CFA][DFA][=EFA] (3[FA][FA][FA] (3[FA][FA][FA] | %46
 (3[FB][FB=e][FBe] (3[FBe][FBe][FBe] (3[FBe][FBe][FBe] (3[F_d][Fd][Fd] | %47
 (3[Fc][A,F][B,F] (3[CF][DF][=EF] (3F[FA][FA] (3[FA][FA][FA] | %48
 (3[FB][FB=e][FBe] (3[FBe][FBe][FBe] (3[FBe][FBe][FBe] (3[F_d][Fd][Fd] | %49
 (3[FA][A,FA][B,FA] (3[CFA][DFA][=EFA] (3F x x x2 | x4 x2 C2 | E4 z2 E2 | F4 z2 C2 | %53
 (3B,B,B, (3B,B,B, (3B,[DF][DF] (3[DF][FB][FB] | %54
 (3[FB][Bd][Bd] (3!plus!B z z (3!plus!F z z (3!plus!D z z | (3!plus!E x x x2 (3!plus!C x x x2 | %56
 (3!plus!F x x x2 (3!plus!F x x!8va(! (3x!8va)!"^arco" [Ac][Ac] ||[K:Bb] x8 | x8 | x8 | x8 | x8 | %62
 x8 | x8 | x8 | x8 | x8 | x8 | x8 | x8 | x8 | x8 | c2 z2 A2 z2 | ^F2 z2 z2 =B2 | c2 z2 A2 z2 | %75
 ^F2 z2 z2 F2 | G2 ^F2 G2 ^G2 | A2 x2 ^A2 x2 | %78
 (3[=Bd][Dd][Dd] (3[Dd][Dd][Dd] (3[Dd][Dd][Dd] (3[Dd][Dd][Dd] || %79
[K:C] (3[Dd][Dd][Dd] (3E x x (3^F x x (3F x x | B,2 x2 x2 (3^F z F | %81
 (3[EA] z z (3G z G (3G z z z2 | z2 (3E x x (3C x x (3C x x | (3[DB] z z (3G z z (3D z z (3E z ^F | %84
 (3G x x x2 x4 | (3[G,D]!>(!G,G, (3G,G,G, (3G,G,_A, (3=A,_B,=B,!>)! | (3CG,C (3ECG, (3CG,C (3ECG, | %87
 (3B,G,D (3FDG, (3CCE (3GEC | (3EDE (3^GED (3A,CE (3AEC | (3EDE (3^GED (3A,CE (3AEC | %90
 (3DCD (3^FDC (3G,B,D (3GDB, | (3DCD (3^FDC (3G,B,D (3GDB, | (3G,B,D (3GFD (3ECE (3GEC | %93
 (3G,B,D (3FDG (3[CE]CE (3GEC | (3G,B,D (3GFD (3ECE (3GEC | (3G,B,D (3GF[G,D] (3[CE]ee (3eee | %96
 (3eee (3eee (3eee ^c2 | d2 z2 B2 z2 | ^G2 z2 z2 ^c2 | d2 z2 B2 z2 | %100
 (3^G x x z2 z2"_ten." (3[Gb] x x | (3[Ac'] x x (3[^Gb] x x (3[Ac'] x x (3[^A^c'] x x | %102
 (3[Bd'] x x x2 (3[^B^d'] x x x2 | (3[^ce'] ee (3eee (3eee (3eee | %104
 (3eee (3!>!^F x x (3!>!^G, x x (3G, x x | x4 x2 .[^G,^G]2 | .[A,A]2 x2 x2 .[A,A]2 | %107
 .[A,A]2 x2 .[A,A]2 x2 | (3[Dd] x x x2 x2 (3d x x | (3[G,d] x x (3_B z G .[G,E]2 .[G,B]2 | %110
 .[A,A]2 x2 .[A,A]2 .[A,A]2 | x8 | (3DEF (3GA_B (3A z z (3!plus!F z z | (3!plus!D x x x2 x4 | %114
 (3DEF (3GA_B (3A z z (3!plus!F z z | (3!plus!D x x x2 x2 (3DDD | %116
{/G,} !///-!_E2 G2 !///-!E G !///-!G _B |{/_E} !///-!_A2 _c2 !///-!A2 c2 | %118
{/_E} !///-!G2 _B2 !///-!G2 B2 |{/G,} !///-!=E2 _B2{/G,} !///-!E B{/G,} !///-!E B | %120
 !///-!D2 F2 !///-!D F !///-!D F | !///-!D2 F2 !///-!A,2 ^C2 | (3x ff (3fff (3fff d2 | %123
 _e2 z2 c2 z2 | A2 z2 z2 d2 | _e2 z2 c2 z2 | A2 z2 z4 | %127
 (3[=B,D][B,D][B,D] (3[B,D][B,D][B,D] (3[CD][CD][CD] (3[CD][CD][CD] | %128
 (3z [_B,D][B,D] (3[B,D][B,D][B,D] (3[CGA][CGA][CGA] (3[CGA][CGA][CGA] | %129
 (3D[D_Bg][DBg] (3[DBg][DBg][DBg] (3D[DA^f][DAf] (3[DAf][DAf][DAf] || %130
[K:Bb] (3[G,D][G,G][G,G] (3[G,G][G,G][G,G] (3[G,G][G,G][G,G] (3[G,G][G,G][G,G] | %131
 (3G,A,B, (3CDE (3D x x (3B, x x | %132
 (3[G,G][G,G][G,G] (3[G,G][G,G][G,G] (3[G,G][G,G][G,G] (3[G,G][G,G][G,G] | %133
 (3G,A,B, (3CDE (3D x x (3B, x x | %134
 (3[G,G][G,G][G,G] (3[G,G][G,G][G,G] (3[G,G][G,G][G,G] (3[G,G][G,G]G | %135
 (3G,A,B, (3CDE (3D x x (3B, x x | (3G, x x (3x x x G,2 x2 | %137
 (3G,[A,G][B,G] (3[CG][DG][EG] (3D x x B,2 | %138
 (3[G,=Bf][G,Bf][G,Bf] (3[G,Bf][G,Bf][G,Bf] (3[G,Bf][G,Bf][G,Bf] (3[G,Bf][G,Bf][G,Bf] | %139
 (3[CGe]!<(!DE (3FG_A!<)! (3G x x (3E x x | C2 x2 x4 | x8 | %142
 (3[_A,Ecc'][A,Ec][A,Ec] (3[A,Ec][A,Ec][A,Ec] (3[A,Ec][A,Ec][A,Ec] (3[A,Ec][A,Ec][A,Ec] | %143
 (3z!f! [_A,_F_d][A,Fd] (3[A,Fd][A,Fd][A,Fd] (3[A,Fd][A,Fd][A,Fd] (3[A,Fd][A,Fd][A,Fd] | %144
 (3[_A,E]!>(![CE][CE] (3[CE][CE][CE] (3([CE][C_A])(.[CA] (3.[CA].[CA].[CA])!>)! | x8 | x8 | x8 |] %148
V:3
 x8 | x8 | x8 | x8 | x8 | x8 | x8 | x8 | x8 | x8 | x8 | x8 | x8 | x8 | x8 | x8 | x8 | x8 | x8 | %19
 x8 | x8 | x8 | x8 | x8 | x8 | x8 | x8 | x8 | x8 | x2 B x x4 | x4 (3x DD (3DDD | x8 | x8 | x8 | %34
 x8 | x8 | x8 | x8 | x8 | x8 | x8 | x8 | x8 | x8 | x8 | x8 | x8 | x4 (3F x x x2 | x8 | x8 | x8 | %51
 x8 | x8 | E3 x x4 | x8 | x8 | x6!8va(! x2/3!8va)! x4/3 ||[K:Bb] x8 | x8 | x8 | x8 | x8 | x8 | x8 | %64
 x8 | x8 | x8 | x8 | x8 | x8 | x8 | x8 | (3ddd (3ddd (3ddd (3ddd | (3ddd (3ddd (3ddd (3ddd | %74
 (3ddd (3ddd (3ddd (3ddd | (3ddd (3ddd (3ddd (3ddd | (3ddd (3ddd (3ddd (3ddd | %77
 (3ddd (3ddd (3ddd (3ddd | x8 ||[K:C] x8 | x8 | x8 | x8 | x8 | x8 | x8 | x8 | x8 | x8 | x8 | x8 | %91
 x8 | x2 (3x x !plus!G, (3!plus!G, x x x2 | x8 | x2 (3x x !plus!G, (3!plus!G, x x x2 | x8 | %96
 (3eee (3eee (3eee (3eee | (3eee (3eee (3eee (3eee | (3eee (3eee (3eee (3eee | %99
 (3eee (3eee (3eee (3eee | (3eee (3eee (3eee (3x ee | x8 | x8 | x8 | x8 | x8 | x8 | x8 | x8 | x8 | %110
 x8 | x8 | x8 | x8 | x8 | x8 | x8 | x8 | x8 | x8 | x8 | x8 | (3D ff (3fff (3fff (3fff | %123
 (3fff (3fff (3fff (3fff | (3fff (3fff (3fff (3fff | (3fff (3fff (3fff (3fff | %126
 (3fff (3fff (3fff (3fff | x8 | x8 | x8 ||[K:Bb] x8 | x4 x2 d2 | x8 | a2 g2 z2 g2 | x8 | %135
 b2 z2 z2 b2 | b2 x2 c'2 (3z z c' | x4 (3GGG (3GGG | x8 | x8 | x8 | x8 | x8 | x8 | x8 | x8 | x8 | %147
 x8 |] %148
V:4
[K:C] z8 | z8 | z8 | z8 | z8 | z8 | z8 | z8 | z8 | z8 | z8 | z8 | z8 | z8 | z8 | z8 | z8 | z8 | %18
 z8 | z8 | z8 | z8 | z8 | z8 | z8 | z8 | z8 | z8 | z8 | z8 | z8 | z8 | z8 | z8 | z8 | z8 | z8 | %37
 z8 | z8 | z8 | z8 | z8 | z8 | z8 | z8 | z8 | z8 | z8 | z8 | z8 | z8 | z8 | z8 | z8 | z8 | z8 | %56
 z8 ||[K:Bb]!p!!8va(! g'4 z2 [be']2!8va)! |!8va(! [Bf]2 z2 z2 [fc']2!8va)! | %59
!8va(! g'4 z2 [be']2!8va)! |!8va(! [Bf]2 z2 z2 [fc']2!8va)! |!8va(! g'4 z2 g'2 | %62
 [f'b']2 z2 [c'f']2 z2 | [c'f']2 (3[=b=e'](.[c'f'].[d'g']) [c'f']2!8va)!!8va(! [A=e]2 | %64
 [Bf]2 z2 z2 [Bf]2 | [fc']2 z2 z2 [^f^c']2!8va)! |!8va(! g'4 [be']2 (3z z ([=b=e'] | %67
 [c'f']2)!8va)! z2 z2!8va(! [Bf]2!8va)! |!8va(! g'4 z2 g'2 | %69
 [g'c'']2 (3z z [f'b'] (3[f'b'] z .[e'_a'] (3.g' z .[c'f'] | %70
 [be']2 z2 (3z z [c'f'] (3g' z [c'f']!8va)! | x8 | z8 | z8 | z8 | z8 | z8 | z8 | z8 || z8 | z8 | %81
 z8 | z8 | z8 | z8 | z8 | z8 | z8 | z8 | z8 | z8 | z8 | z8 | z8 | z8 | z8 | z8 | z8 | z8 | z8 | %100
 z8 | z8 | z8 | z8 | z8 | z8 | z8 | z8 | z8 | z8 | z8 | z8 | z8 | z8 | z8 | z8 | z8 | z8 | z8 | %119
 z8 | z8 | z8 | z8 | z8 | z8 | z8 | z8 | z8 | z8 | z8 || z8 | z8 | z8 | z8 | z8 | z8 | z8 | z8 | %138
 z8 | z8 | z8 | z8 | z8 | z8 | z8 | z8 | z8 | z8 |] %148
V:5
[K:C] z8 | z8 | z8 | z8 | z8 | z8 | z8 | z8 | z8 | z8 | z8 | z8 | z8 | z8 | z8 | z8 | z8 | z8 | %18
 z8 | z8 | z8 | z8 | z8 | z8 | z8 | z8 | z8 | z8 | z8 | z8 | z8 | z8 | z8 | z8 | z8 | z8 | z8 | %37
 z8 | z8 | z8 | z8 | z8 | z8 | z8 | z8 | z8 | z8 | z8 | z8 | z8 | z8 | z8 | z8 | z8 | z8 | z8 | %56
 z8 ||[K:Bb] (3B,(.[Bd].F) (3.B,(.[Bd].F) (3.D(.[Bd].F) (3z (.[Bd].F) | %58
 (3z (.[Ae].F) (3B,(.[Ae].F) (3B,(.[Ae].F) (3B,(.[Ae].F) | %59
 (3B,(.[Bd].F) (3B,(.[Bd].F) (3D(.[Bd].F) (3z (.[Bd].F) | %60
 (3z (.[Ae].F) (3B,(.[Ae].F) (3B,(.[Ae].F) (3B,(.[Ae].F) | %61
 (3B,(.[Bd].F) (3B,(.[Bd].F) (3D(.[Bd].F) (3z (.[Bd].F) | %62
 (3C(.[Ac].F) (3C(.[Ac].F) (3z (.[Ac]F) (3C(.[Ac].F) | %63
 (3z (.[B=e].G) z2 (3z (.[Be].G) (3z (.[Bc].G) | %64
 (3z (.[Ac].F) (3C(.[Ac].[FA]) (3F(.[Ac].[FA]) (3z (.[Ac].[FA]) | %65
 (3z (.[ce].A) (3!>!_G(.[ce].A) (3!>!F(.[Ae].F) (3z (.[Ae].=F) | %66
 (3B,(.[Bd].F) (3B,(.[Bd].F) (3D(.[Bd].F) (3B,[Fd] z | %67
 (3z (.[ce].A) (3_G(.[ce].A) (3F(.[ce].A) (3z (.[Ae].F) | %68
 (3B,(.[Bd].F) (3B,(.[Bd].F) (3D(.[Bd].F) (3B,(.[Bd].F) | %69
 (3G,(.[=Bf].G) (3G,(.[Bd].G,) (3C.[Ge] z (3E.[Ge] z | %70
 (3F(.[Bd].[Bd]) (3F(.[Bd].[Bd]) (3F"^rit. poco"[Ae] z (3F[Ae] z | (3x!f! dd (3ddd (3ddd (3ddd | %72
 z8 | z8 | z8 | z8 | z8 | z8 | z8 || z8 | z8 | z8 | z8 | z8 | z8 | z8 | z8 | z8 | z8 | z8 | z8 | %91
 z8 | z8 | z8 | z8 | z8 | z8 | z8 | z8 | z8 | z8 | z8 | z8 | z8 | z8 | z8 | z8 | z8 | z8 | z8 | %110
 z8 | z8 | z8 | z8 | z8 | z8 | z8 | z8 | z8 | z8 | z8 | z8 | z8 | z8 | z8 | z8 | z8 | z8 | z8 | %129
 z8 || z8 | z8 | z8 | z8 | z8 | z8 | z8 | z8 | z8 | z8 | z8 | z8 | z8 | z8 | z8 | z8 | z8 | z8 |] %148
V:6
[K:C] x8 | x8 | x8 | x8 | x8 | x8 | x8 | x8 | x8 | x8 | x8 | x8 | x8 | x8 | x8 | x8 | x8 | x8 | %18
 x8 | x8 | x8 | x8 | x8 | x8 | x8 | x8 | x8 | x8 | x8 | x8 | x8 | x8 | x8 | x8 | x8 | x8 | x8 | %37
 x8 | x8 | x8 | x8 | x8 | x8 | x8 | x8 | x8 | x8 | x8 | x8 | x8 | x8 | x8 | x8 | x8 | x8 | x8 | %56
 x8 ||[K:Bb] x8 | x8 | x8 | x8 | x8 | x8 | x8 | x8 | x8 | x8 | x8 | x8 | x8 | x8 | %71
 (3[B,E]dd (3ddd (3ddd (3ddd | x8 | x8 | x8 | x8 | x8 | x8 | x8 || x8 | x8 | x8 | x8 | x8 | x8 | %85
 x8 | x8 | x8 | x8 | x8 | x8 | x8 | x8 | x8 | x8 | x8 | x8 | x8 | x8 | x8 | x8 | x8 | x8 | x8 | %104
 x8 | x8 | x8 | x8 | x8 | x8 | x8 | x8 | x8 | x8 | x8 | x8 | x8 | x8 | x8 | x8 | x8 | x8 | x8 | %123
 x8 | x8 | x8 | x8 | x8 | x8 | x8 || x8 | x8 | x8 | x8 | x8 | x8 | x8 | x8 | x8 | x8 | x8 | x8 | %142
 x8 | x8 | x8 | x8 | x8 | x8 |] %148
V:7
[K:C] x8 | x8 | x8 | x8 | x8 | x8 | x8 | x8 | x8 | x8 | x8 | x8 | x8 | x8 | x8 | x8 | x8 | x8 | %18
 x8 | x8 | x8 | x8 | x8 | x8 | x8 | x8 | x8 | x8 | x8 | x8 | x8 | x8 | x8 | x8 | x8 | x8 | x8 | %37
 x8 | x8 | x8 | x8 | x8 | x8 | x8 | x8 | x8 | x8 | x8 | x8 | x8 | x8 | x8 | x8 | x8 | x8 | x8 | %56
 x8 ||[K:Bb] x8 | x8 | x8 | x8 | x8 | x8 | x8 | x8 | x8 | x8 | x8 | x8 | x8 | x8 | x4 x2 d'2 | x8 | %73
 x8 | x8 | x8 | x8 | x8 | x8 || x8 | x8 | x8 | x8 | x8 | x8 | x8 | x8 | x8 | x8 | x8 | x8 | x8 | %92
 x8 | x8 | x8 | x8 | x8 | x8 | x8 | x8 | x8 | x8 | x8 | x8 | x8 | x8 | x8 | x8 | x8 | x8 | x8 | %111
 x8 | x8 | x8 | x8 | x8 | x8 | x8 | x8 | x8 | x8 | x8 | x8 | x8 | x8 | x8 | x8 | x8 | x8 | x8 || %130
 x8 | x8 | x8 | x8 | x8 | x8 | x8 | x8 | x8 | x8 | x8 | x8 | x8 | x8 | x8 | x8 | x8 | x8 |] %148

